src/assets/duotone/SliderHorizontal1.svg

<svg width="24" height="24" viewBox="0 0 24 24"  xmlns="http://www.w3.org/2000/svg">
<path opacity="0.4" d="M15 2H9C7.34 2 6 3.34 6 5V19C6 20.66 7.34 22 9 22H15C16.66 22 18 20.66 18 19V5C18 3.34 16.66 2 15 2Z" />
<path d="M18.67 5.33008H18.33C18.21 5.33008 18.1 5.33008 17.98 5.34008C17.99 5.39008 18 5.44008 18 5.50008V7.00008V17.0001V18.5001C18 18.5601 17.99 18.6101 17.98 18.6601C18.09 18.6701 18.2 18.6701 18.33 18.6701H18.67C21.33 18.6701 22 18.0001 22 15.3301V8.67008C22 6.00008 21.33 5.33008 18.67 5.33008Z" />
<path d="M6 18.5001V17.0001V7.00008V5.50008C6 5.44008 6.01 5.39008 6.02 5.34008C5.9 5.33008 5.79 5.33008 5.67 5.33008H5.33C2.67 5.33008 2 6.00008 2 8.67008V15.3301C2 18.0001 2.67 18.6701 5.33 18.6701H5.67C5.79 18.6701 5.9 18.6701 6.02 18.6601C6.01 18.6101 6 18.5601 6 18.5001Z" />
</svg>

<?xml version="1.0" encoding="UTF-8"?>
<svg width="24" height="24" viewBox="0 0 24 24" xmlns="http://www.w3.org/2000/svg">
 <path d="m15 2h-6c-1.66 0-3 1.34-3 3v14c0 1.66 1.34 3 3 3h6c1.66 0 3-1.34 3-3v-14c0-1.66-1.34-3-3-3z" opacity=".4"/>
 <path d="m18.67 5.3301h-0.34c-0.12 0-0.23 0-0.35 0.01 0.01 0.05 0.02 0.1 0.02 0.16v13c0 0.06-0.01 0.11-0.02 0.16 0.11 0.01 0.22 0.01 0.35 0.01h0.34c2.66 0 3.33-0.67 3.33-3.34v-6.66c0-2.67-0.67-3.34-3.33-3.34z"/>
 <path d="m6 18.5v-13c0-0.06 0.01-0.11 0.02-0.16-0.12-0.01-0.23-0.01-0.35-0.01h-0.34c-2.66 0-3.33 0.67-3.33 3.34v6.66c0 2.67 0.67 3.34 3.33 3.34h0.34c0.12 0 0.23 0 0.35-0.01-0.01-0.05-0.02-0.1-0.02-0.16z"/>
</svg>
